_inc/systems/logos/wasm4.svg

<?xml version="1.0" encoding="UTF-8" standalone="no"?>
<svg
   width="345"
   height="70"
   viewBox="0 0 345 70"
   fill="none"
   version="1.1"
   id="svg60"
   sodipodi:docname="logo (1).svg"
   inkscape:version="1.2.2 (732a01da63, 2022-12-09)"
   xmlns:inkscape="http://www.inkscape.org/namespaces/inkscape"
   xmlns:sodipodi="http://sodipodi.sourceforge.net/DTD/sodipodi-0.dtd"
   xmlns="http://www.w3.org/2000/svg"
   xmlns:svg="http://www.w3.org/2000/svg">
  <defs
     id="defs64" />
  <sodipodi:namedview
     id="namedview62"
     pagecolor="#ffffff"
     bordercolor="#666666"
     borderopacity="1.0"
     inkscape:pageshadow="2"
     inkscape:pageopacity="0.0"
     inkscape:pagecheckerboard="0"
     showgrid="false"
     inkscape:lockguides="true"
     inkscape:zoom="4"
     inkscape:cx="113.75"
     inkscape:cy="94.5"
     inkscape:window-width="1920"
     inkscape:window-height="1009"
     inkscape:window-x="-8"
     inkscape:window-y="-8"
     inkscape:window-maximized="1"
     inkscape:current-layer="svg60"
     inkscape:showpageshadow="0"
     inkscape:deskcolor="#d1d1d1" />
  <g
     id="g887">
    <path
       id="rect885"
       style="fill:#ffffff;fill-opacity:1;fill-rule:evenodd;stroke-width:16.0135;stroke-linecap:square;paint-order:markers stroke fill;stop-color:#000000"
       d="M 0 0 L 0 70 L 70 70 L 70 0 L 43.029297 0 A 8.0568492 8.0568484 0 0 1 43.046875 0.40039062 A 8.0568492 8.0568484 0 0 1 34.990234 8.4570312 A 8.0568492 8.0568484 0 0 1 26.933594 0.40039062 A 8.0568492 8.0568484 0 0 1 26.986328 0 L 0 0 z M 56.566406 32.744141 A 5.9514499 5.9514494 0 0 1 62.517578 38.697266 A 5.9514499 5.9514494 0 0 1 56.566406 44.648438 A 5.9514499 5.9514494 0 0 1 50.615234 38.697266 A 5.9514499 5.9514494 0 0 1 56.566406 32.744141 z M 15.789062 33.636719 L 22.300781 33.636719 L 22.300781 41.845703 L 30.509766 41.845703 L 30.509766 48.357422 L 22.300781 48.357422 L 22.300781 56.566406 L 15.789062 56.566406 L 15.789062 48.357422 L 7.5800781 48.357422 L 7.5800781 41.845703 L 15.789062 41.845703 L 15.789062 33.636719 z M 67.761719 39.275391 L 67.894531 39.275391 L 67.894531 39.335938 L 67.761719 39.335938 L 67.761719 39.275391 z M 45.892578 45.533203 A 5.9514499 5.9514494 0 0 1 51.84375 51.484375 A 5.9514499 5.9514494 0 0 1 45.892578 57.435547 A 5.9514499 5.9514494 0 0 1 39.941406 51.484375 A 5.9514499 5.9514494 0 0 1 45.892578 45.533203 z " />
  </g>
  <g
     aria-label="WASM-4"
     transform="matrix(0.95579752,0,0,1.0253363,-25.68996,-12.999999)"
     id="text13293"
     style="font-weight:bold;font-size:62.6307px;line-height:1.25;font-family:Cantarell;-inkscape-font-specification:'Cantarell Bold';text-align:center;letter-spacing:0px;word-spacing:0px;text-anchor:middle;fill:#ffffff;fill-opacity:1;stroke-width:2.9358">
    <path
       d="m 128.04523,68.546761 h 8.5804 l 9.45724,-32.818487 10.2088,32.818487 h 8.39252 l 12.6514,-43.465706 h -8.14199 l -8.51778,32.755856 -9.70776,-32.505333 h -8.89356 l -9.3946,33.194271 -8.26725,-33.444794 h -9.20672 z"
       id="path828"
       style="fill:#ffffff;fill-opacity:1" />
    <path
       d="m 177.58599,68.546761 h 8.58041 l 3.56995,-10.897742 h 16.65976 l 3.50732,10.897742 h 8.95619 L 203.82826,25.081055 h -10.3967 z m 14.46769,-18.100272 6.01255,-18.413426 6.01255,18.413426 z"
       id="path830"
       style="fill:#ffffff;fill-opacity:1" />
    <path
       d="m 235.83245,69.173068 c 10.58458,0 16.97291,-5.260979 16.97291,-13.40297 0,-15.720306 -22.8602,-10.271435 -22.8602,-19.039733 0,-3.319427 3.00627,-5.198348 8.45514,-5.198348 3.56995,0 7.51569,0.688938 10.64722,1.878921 l 2.31734,-6.388331 c -3.69521,-1.628398 -8.20462,-2.567859 -12.52614,-2.567859 -10.33407,0 -17.28607,5.32361 -17.28607,13.528231 0,14.843476 22.79757,9.958282 22.79757,18.78921 0,3.194166 -2.81838,5.135717 -8.14199,5.135717 -3.94573,0 -8.7683,-0.876829 -13.08982,-2.69312 l -2.31733,6.513593 c 4.63467,2.129444 10.02091,3.444689 15.03137,3.444689 z"
       id="path832"
       style="fill:#ffffff;fill-opacity:1" />
    <path
       d="m 259.82,68.546761 h 7.82884 V 39.360855 l 11.46142,22.484421 h 6.20044 l 11.64931,-23.29862 v 30.000105 h 7.82883 V 25.081055 h -7.82883 L 282.61758,53.26487 267.7741,25.081055 H 259.82 Z"
       id="path834"
       style="fill:#ffffff;fill-opacity:1" />
    <path
       d="m 313.49446,55.707467 h 18.47605 v -6.513592 h -18.47605 z"
       id="path836"
       style="fill:#ffffff;fill-opacity:1" />
    <path
       d="m 357.64906,68.985175 h 7.82884 V 59.52794 h 7.70358 v -6.701485 h -7.70358 v -27.7454 h -7.64095 l -20.98128,30.250628 v 4.196257 h 20.79339 z M 345.43608,52.763824 357.64906,34.41303 v 18.350794 z"
       id="path838"
       style="fill:#ffffff;fill-opacity:1" />
  </g>
</svg>

<svg xmlns="http://www.w3.org/2000/svg" fill="none" viewBox="0 0 345 70"><path d="M0 0v70h70V0H43.03l.02.4a8.06 8.06 0 0 1-8.06 8.06A8.06 8.06 0 0 1 26.93.4L27 0zm56.57 32.74a5.95 5.95 0 0 1 5.95 5.96 5.95 5.95 0 0 1-5.95 5.95 5.95 5.95 0 0 1-5.95-5.95 5.95 5.95 0 0 1 5.95-5.96m-40.78.9h6.51v8.2h8.21v6.52h-8.2v8.2h-6.52v-8.2H7.58v-6.51h8.2zm51.97 5.64h.13v.06h-.13zM45.9 45.53a5.95 5.95 0 0 1 5.95 5.95 5.95 5.95 0 0 1-5.95 5.96 5.95 5.95 0 0 1-5.95-5.96 5.95 5.95 0 0 1 5.95-5.95" style="fill:#fff;fill-opacity:1;fill-rule:evenodd;stroke-width:16.0135;stroke-linecap:square;paint-order:markers stroke fill;stop-color:#000"/><g aria-label="WASM-4" style="font-weight:700;font-size:62.6307px;line-height:1.25;font-family:Cantarell;-inkscape-font-specification:&quot;Cantarell Bold&quot;;text-align:center;letter-spacing:0;word-spacing:0;text-anchor:middle;fill:#fff;fill-opacity:1;stroke-width:2.9358"><path d="M128.05 68.55h8.58l9.45-32.82 10.21 32.82h8.4l12.65-43.47h-8.15l-8.51 32.76-9.71-32.5h-8.9l-9.39 33.19-8.27-33.45h-9.2zm49.54 0h8.58l3.57-10.9h16.66l3.5 10.9h8.96l-15.03-43.47h-10.4zm14.46-18.1 6.02-18.42 6 18.42zm43.78 18.72c10.59 0 16.98-5.26 16.98-13.4 0-15.72-22.86-10.27-22.86-19.04 0-3.32 3-5.2 8.45-5.2 3.57 0 7.52.7 10.65 1.88l2.31-6.39a32 32 0 0 0-12.52-2.57c-10.34 0-17.29 5.33-17.29 13.53 0 14.85 22.8 9.96 22.8 18.8 0 3.19-2.82 5.13-8.14 5.13-3.95 0-8.77-.88-13.1-2.7l-2.3 6.52a37 37 0 0 0 15.02 3.44m23.99-.62h7.83V39.36l11.46 22.49h6.2l11.65-23.3v30h7.83V25.08h-7.83l-14.34 28.18-14.85-28.18h-7.95ZM313.5 55.7h18.47v-6.5H313.5zm44.15 13.29h7.83v-9.46h7.7v-6.7h-7.7V25.08h-7.64l-20.98 30.25v4.2h20.79zm-12.21-16.23 12.2-18.35v18.35z" style="fill:#fff;fill-opacity:1" transform="matrix(.9558 0 0 1.02534 -25.69 -13)"/></g></svg>
